X: 1
T: The Braes of Breadalbane
T: 8 x 32S 3C (RSCDS Book 21)
P: The Braes of Breadalbane
C: RSCDS Book 21, arr. T. Traub 7-9-98
M: 4/4
L: 1/8
K: Am
|: E|"Am"E<AA>B c>B!beambr1!A<c|"Am"e2 c<A e2 c<A|"Am"E<AA>B c>B!beambr1!A<c|"Am"c>A"E"B>^G "Am"A2 "(E)"z:|
"G"B|"C"c>c!beambr1!c<c "G"d>d!beambr1!d<d|"C"e>f!beambr1!g<e "G"d>B!beambr1!A<G|"C"c>c!beambr1!c<c "Dm"d>d!beambr1!d<d|"C"e>dc>d "E"e2 "G"z d|
"C"c>c!beambr1!c<c "G"d>d!beambr1!d<d|"C"e>f!beambr1!g<e "G"d>B!beambr1!A<G|"C"c>c!beambr1!c<c "Dm"d>d!beambr1!d<d|"E"e>dc>B "Am" A2 |]

